X:1
T:Loved Ones Gone
T:Loved Ones Gone
T:B. F. Greenhaw
T:B. F. Greenhaw, 1919
T:Public Domain Courtesy of the Cyber Hymnal™
T:Public Domain Courtesy of the Cyber Hymnal™
C:B. F. Greenhaw
Z:Public Domain
Z:Courtesy of the Cyber Hymnal™
%%score ( 1 2 ) ( 3 4 )
L:1/8
Q:1/4=95
M:4/4
K:F
V:1 treble 
V:2 treble 
V:3 bass 
V:4 bass 
V:1
 CF | A4- [FA][Fc][FA][CF] | D[DF-] F4 FG | A4- [FA][Fc][Fc][FA] | G6 AA | c4- [Fc][FA][CF][CG] | %6
w: 1.~We have|loved ones gone be- fore|* us * (gone be-|us), To the peace- ful,|* heav’n- ly|shore (the heav’n- ly shore),|
w: 2.~Sad and|lone- ly they have left|* us * (they have|us), But our Fa- ther’s|* will be|done (His will be done);|
w: 3.~O how|sweet ’twill be to join|* them * (be to|them), In that hap- py|* home a-|bove (that home a- bove);|
 [FA][FA-] A4 dc | A4- [FA][Fc][FA][EG] | F6 ||"^Refrain" z2 | [FA]2 [FA]2 [FA][Fc][Fc][Fc] | %11
w: * And * they’re hap-|with their Sav- ior (with|||their Sav- ior), Sing- ing prais-|
w: * Trust- * ing Him|praise and serve Him (praise|||and serve Him), Till our race|
w: * There * to dwell|peace for- ev- er (peace|||for- ev- er), Shar- ing our|
 [Fd][Fd][Fd][Fc] [Fc][Fc] z2 | [Fd]2 [Fd]2 [Fd][Fc][F=B][FB] | [Ec][Fc][Gc][Fc] [Ec]2 FF | %14
w: es ev- er- more (for- ev-|er- more). Loved ones gone ~|~ ~ ~ ~ now re- joic-|
w: on earth is run (on earth|is run). * * * *||
w: Re- deem- er’s love (Re- deem-|er’s love). * * * *||
 A4- [FA][F^G][FA][Fc] | [Fd]([Fc-] c4) dc | A4- [FA][Fc][FA][EG] | F6 |] %18
w: ing Free from sor- row,|* ~ * ~ ~|from pain and care; Bless-||
w: ||||
w: ||||
V:2
 x2 | F2 F2 x4 | DDDC C x3 | F2 F2 x4 | EEEE E2 x2 | F2 F2 x4 | x2 FF FF x2 | F2 F2 x4 | FCDD C2 || %9
w: ||* fore * * *||||py * * *|||
w: ||* left * * *||||we’ll * * *|||
w: ||* join * * *||||in * * *|||
 x2 | x8 | x8 | x8 | x8 | F2 F2 x4 | x2 (EEFF) x2 | F2 F2 x4 | (FCDD C2) |] %18
w: |||||||||
w: |||||||||
w: |||||||||
V:3
 z2 | [F,C]2 [F,C]2 [F,C][F,A,][F,C][F,A,] | [B,,B,][B,,B,][B,,B,][D,B,] [F,A,][F,A,] z2 | %3
w: |~ ~ ~ ~ ~ ~|~ ~ ~ ~ ~ ~|
 [F,C]2 [F,C]2 [F,C][A,C][A,C][F,C] | [C,C][C,C][C,C][C,C] [C,C]2 z2 | %5
w: ~ ~ ~ ~ ~ ~|~ ~ ~ ~ ~|
 [F,A,]2 [F,A,]2 [F,A,][F,C][F,A,][F,B,] | [F,C][F,C][D,D][D,D] [F,C][F,C] z2 | %7
w: ~ ~ ~ ~ ~ ~|~ ~ ~ ~ ~ ~|
 [F,C]2 [D,D]2 [A,,C][A,,C][C,C][C,B,] | A,A,B,B, A,2 || C,C, | (C2 C2 [F,C])[F,A,][A,C][F,A,] | %11
w: ~ ~ ~ ~ ~ ~|~ ~ ~ ~ ~|Loved ones|gone * * are now re-|
 [D,A,] ([F,-A,]B,A, A,A,)A,,A,, | (A,2 A,2 [D,A,])[F,A,]G,[G,,G,] | (G,A,B,A, G,2) z2 | %14
w: joic- * * * * * ing Free|from * * sor- row, pain|and * * * *|
 [F,C]2 [F,C]2 [F,C][F,=B,][F,C][F,A,] | [F,B,][F,A,][C,G,][C,G,] [F,A,][F,A,] z2 | %16
w: care; Bless- èd thought, ~ ~|~ ~ ~ yes, we’ll meet|
 [F,C]2 [D,D]2 [A,,C][A,,C][C,C][C,B,] | A,A,B,B, A,2 |] %18
w: them, * ~ ~ ~ ~|~ ~ ~ so bright|
V:4
 x2 | x8 | x8 | x8 | x8 | x8 | x8 | x8 | F,6 || x2 | F,4- x4 | x2 F,4 x2 | D,4- G, x3 | C,6 x2 | %14
 x8 | x8 | x8 | F,6 |] %18

